svgs/thin/mp3-player.svg

<svg xmlns="http://www.w3.org/2000/svg" viewBox="0 0 384 512"><!-- Font Awesome Pro 6.0.0-alpha2 by @fontawesome - https://fontawesome.com License - https://fontawesome.com/license (Commercial License) --><path d="M320 0H64C28.654 0 0 28.654 0 64V448C0 483.346 28.654 512 64 512H320C355.346 512 384 483.346 384 448V64C384 28.654 355.346 0 320 0ZM368 448C368 474.467 346.467 496 320 496H64C37.533 496 16 474.467 16 448V64C16 37.533 37.533 16 64 16H320C346.467 16 368 37.533 368 64V448ZM192 224C130.166 224 80 274.166 80 336S130.166 448 192 448S304 397.834 304 336S253.834 224 192 224ZM192 432C139.066 432 96 388.936 96 336S139.066 240 192 240C244.936 240 288 283.064 288 336S244.936 432 192 432ZM288 64H96C78.326 64 64 78.326 64 96V160C64 177.674 78.326 192 96 192H288C305.674 192 320 177.674 320 160V96C320 78.326 305.674 64 288 64ZM304 160C304 168.822 296.822 176 288 176H96C87.178 176 80 168.822 80 160V96C80 87.178 87.178 80 96 80H288C296.822 80 304 87.178 304 96V160ZM192 304C174.375 304 160 318.375 160 336S174.375 368 192 368S224 353.625 224 336S209.625 304 192 304ZM192 352C183.178 352 176 344.822 176 336S183.178 320 192 320S208 327.178 208 336S200.822 352 192 352Z"/></svg>

<svg xmlns="http://www.w3.org/2000/svg" viewBox="0 0 384 512"><!--! Font Awesome Pro 6.3.0 by @fontawesome - https://fontawesome.com License - https://fontawesome.com/license (Commercial License) Copyright 2023 Fonticons, Inc. --><path d="M320 0H64C28.65 0 0 28.65 0 64v384c0 35.35 28.65 64 64 64h256c35.35 0 64-28.65 64-64V64C384 28.65 355.3 0 320 0zM368 448c0 26.47-21.53 48-48 48H64c-26.47 0-48-21.53-48-48V64c0-26.47 21.53-48 48-48h256c26.47 0 48 21.53 48 48V448zM192 224c-61.83 0-112 50.17-112 112S130.2 448 192 448s112-50.17 112-112S253.8 224 192 224zM192 432c-52.93 0-96-43.06-96-96s43.07-96 96-96c52.94 0 96 43.06 96 96S244.9 432 192 432zM288 64H96C78.33 64 64 78.33 64 96v64c0 17.67 14.33 32 32 32h192c17.67 0 32-14.33 32-32V96C320 78.33 305.7 64 288 64zM304 160c0 8.822-7.178 16-16 16H96C87.18 176 80 168.8 80 160V96c0-8.822 7.178-16 16-16h192c8.822 0 16 7.178 16 16V160zM192 304c-17.62 0-32 14.38-32 32s14.38 32 32 32s32-14.38 32-32S209.6 304 192 304zM192 352c-8.822 0-16-7.178-16-16S183.2 320 192 320s16 7.178 16 16S200.8 352 192 352z"/></svg>
